X:3
T:The Farmer In The Dell 
%%score 1 { 2 | 3 }
L:1/8
Q:3/8=100
M:6/8
I:linebreak $
K:G
V:1 treble nm="Violin"
V:2 treble nm="Piano"
V:3 bass 
V:1
D |: G2 G G2 G | G3 z2 G | B2 B B2 B | B3 z2 z |$ d3 d2 e | d2 B G2 A | B2 B A2 A | G3 z2 D |$ 
w: The|farm- er in the|dell, The|farm- er in the|dell,|Heigh- O, the|mer- ry O, The|farm- er in the|dell. The|
w: |||||||||
w: |||||||||
G2 G G2 G | G3 z2 G | B2 B B2 B | B3 z2 z |$ d3 d2 e | d2 B G2 A | B2 B A2 A | G3 z2 z :| 
w: Farm- er takes a|wife, The|farm- er takes a|wife,|Heigh- O, the|mer- ry O, The|farm- er takes a|wife.|
w: Wife * takes the|child The|wife * takes the|child|||||
w: Child * takes the|nurse *|||||||
V:2
D |: [B,G]2 [B,G] [B,G]2 [B,G] | [B,G]3 z2 G | [DB]2 [DB] [DB]2 [DB] | [DB]3 z2 z |$ 
[Gd]3 [Gd]2 e | [Gd]2 B [DG]2 A | [DB]2 [DB] [CA]2 [CA] | [B,G]3 z2 D |$ 
[B,G]2 [B,G] [B,G]2 [B,G] | [B,G]3 z2 G | [DB]2 [DB] [DB]2 [DB] | [DB]3 z2 z |$ [Gd]3 [Gd]2 e | 
[Gd]2 B [DG]2 A | [DB]2 [DB] [CA]2 [CA] | [B,G]3 z2 z :| 
V:3
z |: [G,,D,]3- [G,,D,]3 | [G,,D,]3- [G,,D,]3 | [G,,D,]3- [G,,D,]3 | [G,,D,]3- [G,,D,]3 |$ 
[D,B,]3- [D,B,]3 | [D,B,]3- [D,B,]3 | [D,G,]3 [D,F,]3 | [G,,D,]3 z2 z |$ [G,,D,]3- [G,,D,]3 | 
[G,,D,]3- [G,,D,]3 | [G,,D,]3- [G,,D,]3 | [G,,D,]3- [G,,D,]3 |$ [D,B,]3- [D,B,]3 | 
[D,B,]3- [D,B,]3 | [D,G,]3 [D,F,]3 | [G,,D,]3 z2 z :| 




